images/50541483.svg

<?xml version="1.0" encoding="UTF-8"?>
<svg xmlns="http://www.w3.org/2000/svg" xmlns:xlink="http://www.w3.org/1999/xlink" width="300pt" height="300pt" viewBox="0 0 300 300" version="1.1">
<defs>
<g>
<symbol overflow="visible" id="glyph0-0">
<path style="stroke:none;" d="M 0.453125 1.59375 L 0.453125 -6.34375 L 4.953125 -6.34375 L 4.953125 1.59375 Z M 0.953125 1.09375 L 4.453125 1.09375 L 4.453125 -5.84375 L 0.953125 -5.84375 Z M 0.953125 1.09375 "/>
</symbol>
<symbol overflow="visible" id="glyph0-1">
<path style="stroke:none;" d="M 5.796875 -6.0625 L 5.796875 -5.125 C 5.492188 -5.394531 5.171875 -5.597656 4.828125 -5.734375 C 4.492188 -5.878906 4.140625 -5.953125 3.765625 -5.953125 C 3.015625 -5.953125 2.4375 -5.722656 2.03125 -5.265625 C 1.632812 -4.804688 1.4375 -4.144531 1.4375 -3.28125 C 1.4375 -2.414062 1.632812 -1.753906 2.03125 -1.296875 C 2.4375 -0.835938 3.015625 -0.609375 3.765625 -0.609375 C 4.140625 -0.609375 4.492188 -0.675781 4.828125 -0.8125 C 5.171875 -0.945312 5.492188 -1.15625 5.796875 -1.4375 L 5.796875 -0.5 C 5.484375 -0.289062 5.15625 -0.132812 4.8125 -0.03125 C 4.46875 0.0703125 4.097656 0.125 3.703125 0.125 C 2.710938 0.125 1.929688 -0.175781 1.359375 -0.78125 C 0.785156 -1.394531 0.5 -2.226562 0.5 -3.28125 C 0.5 -4.332031 0.785156 -5.160156 1.359375 -5.765625 C 1.929688 -6.378906 2.710938 -6.6875 3.703125 -6.6875 C 4.097656 -6.6875 4.46875 -6.632812 4.8125 -6.53125 C 5.164062 -6.425781 5.492188 -6.269531 5.796875 -6.0625 Z M 5.796875 -6.0625 "/>
</symbol>
<symbol overflow="visible" id="glyph0-2">
<path style="stroke:none;" d="M 0.84375 -6.84375 L 1.65625 -6.84375 L 1.65625 0 L 0.84375 0 Z M 0.84375 -6.84375 "/>
</symbol>
<symbol overflow="visible" id="glyph0-3">
<path style="stroke:none;" d="M 0.890625 -6.5625 L 2.078125 -6.5625 L 4.984375 -1.078125 L 4.984375 -6.5625 L 5.84375 -6.5625 L 5.84375 0 L 4.65625 0 L 1.75 -5.484375 L 1.75 0 L 0.890625 0 Z M 0.890625 -6.5625 "/>
</symbol>
<symbol overflow="visible" id="glyph0-4">
<path style="stroke:none;" d="M 0.890625 -6.5625 L 1.765625 -6.5625 L 1.765625 -3.875 L 5 -3.875 L 5 -6.5625 L 5.890625 -6.5625 L 5.890625 0 L 5 0 L 5 -3.125 L 1.765625 -3.125 L 1.765625 0 L 0.890625 0 Z M 0.890625 -6.5625 "/>
</symbol>
<symbol overflow="visible" id="glyph0-5">
<path style="stroke:none;" d="M 3.546875 -5.953125 C 2.898438 -5.953125 2.382812 -5.710938 2 -5.234375 C 1.625 -4.753906 1.4375 -4.101562 1.4375 -3.28125 C 1.4375 -2.445312 1.625 -1.789062 2 -1.3125 C 2.382812 -0.832031 2.898438 -0.59375 3.546875 -0.59375 C 4.191406 -0.59375 4.703125 -0.832031 5.078125 -1.3125 C 5.453125 -1.789062 5.640625 -2.445312 5.640625 -3.28125 C 5.640625 -4.101562 5.453125 -4.753906 5.078125 -5.234375 C 4.703125 -5.710938 4.191406 -5.953125 3.546875 -5.953125 Z M 3.546875 -6.6875 C 4.460938 -6.6875 5.195312 -6.375 5.75 -5.75 C 6.300781 -5.132812 6.578125 -4.3125 6.578125 -3.28125 C 6.578125 -2.238281 6.300781 -1.410156 5.75 -0.796875 C 5.195312 -0.179688 4.460938 0.125 3.546875 0.125 C 2.617188 0.125 1.878906 -0.179688 1.328125 -0.796875 C 0.773438 -1.410156 0.5 -2.238281 0.5 -3.28125 C 0.5 -4.3125 0.773438 -5.132812 1.328125 -5.75 C 1.878906 -6.375 2.617188 -6.6875 3.546875 -6.6875 Z M 3.546875 -6.6875 "/>
</symbol>
</g>
</defs>
<g id="surface25529">
<rect x="0" y="0" width="300" height="300" style="fill:rgb(100%,100%,100%);fill-opacity:1;stroke:none;"/>
<path style="fill:none;stroke-width:1.2;stroke-linecap:butt;stroke-linejoin:miter;stroke:rgb(0%,80%,0%);stroke-opacity:1;stroke-miterlimit:10;" d="M 87.875 189.628906 L 80.160156 181.519531 "/>
<path style="fill:none;stroke-width:1.2;stroke-linecap:butt;stroke-linejoin:miter;stroke:rgb(0%,0%,0%);stroke-opacity:1;stroke-miterlimit:10;" d="M 80.160156 181.519531 L 72.445312 173.40625 "/>
<path style=" stroke:none;fill-rule:nonzero;fill:rgb(100%,100%,100%);fill-opacity:1;" d="M 82.875 184.128906 L 92.875 184.128906 L 92.875 195.128906 L 82.875 195.128906 Z M 82.875 184.128906 "/>
<g style="fill:rgb(0%,80%,0%);fill-opacity:1;">
  <use xlink:href="#glyph0-1" x="82.875" y="192.791992"/>
  <use xlink:href="#glyph0-2" x="89.388672" y="192.791992"/>
</g>
<path style="fill:none;stroke-width:1.2;stroke-linecap:butt;stroke-linejoin:miter;stroke:rgb(0%,0%,0%);stroke-opacity:1;stroke-miterlimit:10;" d="M 72.445312 173.40625 L 50.679688 178.660156 "/>
<path style="fill:none;stroke-width:1.2;stroke-linecap:butt;stroke-linejoin:miter;stroke:rgb(0%,0%,0%);stroke-opacity:1;stroke-miterlimit:10;" d="M 69.03125 168.8125 L 51.621094 173.015625 "/>
<path style="fill:none;stroke-width:1.2;stroke-linecap:butt;stroke-linejoin:miter;stroke:rgb(0%,0%,0%);stroke-opacity:1;stroke-miterlimit:10;" d="M 78.777344 151.933594 L 72.445312 173.40625 "/>
<path style="fill:none;stroke-width:1.2;stroke-linecap:butt;stroke-linejoin:miter;stroke:rgb(0%,0%,0%);stroke-opacity:1;stroke-miterlimit:10;" d="M 50.679688 178.660156 L 35.25 162.441406 "/>
<path style="fill:none;stroke-width:1.2;stroke-linecap:butt;stroke-linejoin:miter;stroke:rgb(0%,0%,0%);stroke-opacity:1;stroke-miterlimit:10;" d="M 35.25 162.441406 L 41.582031 140.964844 "/>
<path style="fill:none;stroke-width:1.2;stroke-linecap:butt;stroke-linejoin:miter;stroke:rgb(0%,0%,0%);stroke-opacity:1;stroke-miterlimit:10;" d="M 40.9375 161.78125 L 46.003906 144.601562 "/>
<path style="fill:none;stroke-width:1.2;stroke-linecap:butt;stroke-linejoin:miter;stroke:rgb(0%,0%,0%);stroke-opacity:1;stroke-miterlimit:10;" d="M 41.582031 140.964844 L 63.347656 135.710938 "/>
<path style="fill:none;stroke-width:1.2;stroke-linecap:butt;stroke-linejoin:miter;stroke:rgb(0%,0%,0%);stroke-opacity:1;stroke-miterlimit:10;" d="M 63.347656 135.710938 L 66.511719 124.976562 "/>
<path style="fill:none;stroke-width:1.2;stroke-linecap:butt;stroke-linejoin:miter;stroke:rgb(0%,80%,0%);stroke-opacity:1;stroke-miterlimit:10;" d="M 66.511719 124.976562 L 69.679688 114.238281 "/>
<path style="fill:none;stroke-width:1.2;stroke-linecap:butt;stroke-linejoin:miter;stroke:rgb(0%,0%,0%);stroke-opacity:1;stroke-miterlimit:10;" d="M 63.347656 135.710938 L 78.777344 151.933594 "/>
<path style="fill:none;stroke-width:1.2;stroke-linecap:butt;stroke-linejoin:miter;stroke:rgb(0%,0%,0%);stroke-opacity:1;stroke-miterlimit:10;" d="M 61.074219 140.964844 L 73.417969 153.941406 "/>
<path style=" stroke:none;fill-rule:nonzero;fill:rgb(100%,100%,100%);fill-opacity:1;" d="M 64.679688 108.738281 L 74.679688 108.738281 L 74.679688 119.738281 L 64.679688 119.738281 Z M 64.679688 108.738281 "/>
<g style="fill:rgb(0%,80%,0%);fill-opacity:1;">
  <use xlink:href="#glyph0-1" x="64.679688" y="117.401367"/>
  <use xlink:href="#glyph0-2" x="71.193359" y="117.401367"/>
</g>
<path style="fill:none;stroke-width:1.2;stroke-linecap:butt;stroke-linejoin:miter;stroke:rgb(0%,0%,0%);stroke-opacity:1;stroke-miterlimit:10;" d="M 78.777344 151.933594 L 100.539062 146.679688 "/>
<path style="fill:none;stroke-width:1.2;stroke-linecap:butt;stroke-linejoin:miter;stroke:rgb(0%,0%,0%);stroke-opacity:1;stroke-miterlimit:10;" d="M 100.539062 146.679688 L 106.871094 125.207031 "/>
<path style="fill:none;stroke-width:1.2;stroke-linecap:butt;stroke-linejoin:miter;stroke:rgb(0%,0%,0%);stroke-opacity:1;stroke-miterlimit:10;" d="M 106.226562 146.023438 L 111.292969 128.84375 "/>
<path style="fill:none;stroke-width:1.2;stroke-linecap:butt;stroke-linejoin:miter;stroke:rgb(0%,0%,0%);stroke-opacity:1;stroke-miterlimit:10;" d="M 115.972656 162.902344 L 100.539062 146.679688 "/>
<path style="fill:none;stroke-width:1.2;stroke-linecap:butt;stroke-linejoin:miter;stroke:rgb(0%,0%,0%);stroke-opacity:1;stroke-miterlimit:10;" d="M 106.871094 125.207031 L 128.636719 119.953125 "/>
<path style="fill:none;stroke-width:1.2;stroke-linecap:butt;stroke-linejoin:miter;stroke:rgb(0%,0%,0%);stroke-opacity:1;stroke-miterlimit:10;" d="M 128.636719 119.953125 L 144.066406 136.175781 "/>
<path style="fill:none;stroke-width:1.2;stroke-linecap:butt;stroke-linejoin:miter;stroke:rgb(0%,0%,0%);stroke-opacity:1;stroke-miterlimit:10;" d="M 133.996094 117.945312 L 146.339844 130.921875 "/>
<path style="fill:none;stroke-width:1.2;stroke-linecap:butt;stroke-linejoin:miter;stroke:rgb(0%,0%,0%);stroke-opacity:1;stroke-miterlimit:10;" d="M 134.96875 98.480469 L 128.636719 119.953125 "/>
<path style="fill:none;stroke-width:1.2;stroke-linecap:butt;stroke-linejoin:miter;stroke:rgb(0%,0%,0%);stroke-opacity:1;stroke-miterlimit:10;" d="M 144.066406 136.175781 L 154.949219 133.546875 "/>
<path style="fill:none;stroke-width:1.2;stroke-linecap:butt;stroke-linejoin:miter;stroke:rgb(0%,0%,100%);stroke-opacity:1;stroke-miterlimit:10;" d="M 154.949219 133.546875 L 165.832031 130.921875 "/>
<path style="fill:none;stroke-width:1.2;stroke-linecap:butt;stroke-linejoin:miter;stroke:rgb(0%,0%,0%);stroke-opacity:1;stroke-miterlimit:10;" d="M 144.066406 136.175781 L 140.902344 146.910156 "/>
<path style="fill:none;stroke-width:1.2;stroke-linecap:butt;stroke-linejoin:miter;stroke:rgb(0%,0%,100%);stroke-opacity:1;stroke-miterlimit:10;" d="M 140.902344 146.910156 L 137.734375 157.648438 "/>
<path style="fill:none;stroke-width:1.2;stroke-linecap:butt;stroke-linejoin:miter;stroke:rgb(0%,0%,100%);stroke-opacity:1;stroke-miterlimit:10;" d="M 165.832031 130.921875 L 168.996094 120.183594 "/>
<path style="fill:none;stroke-width:1.2;stroke-linecap:butt;stroke-linejoin:miter;stroke:rgb(0%,0%,0%);stroke-opacity:1;stroke-miterlimit:10;" d="M 168.996094 120.183594 L 172.164062 109.445312 "/>
<path style="fill:none;stroke-width:1.2;stroke-linecap:butt;stroke-linejoin:miter;stroke:rgb(0%,0%,100%);stroke-opacity:1;stroke-miterlimit:10;" d="M 161.410156 127.285156 L 163.945312 118.695312 "/>
<path style="fill:none;stroke-width:1.2;stroke-linecap:butt;stroke-linejoin:miter;stroke:rgb(0%,0%,0%);stroke-opacity:1;stroke-miterlimit:10;" d="M 163.945312 118.695312 L 166.476562 110.105469 "/>
<path style=" stroke:none;fill-rule:nonzero;fill:rgb(100%,100%,100%);fill-opacity:1;" d="M 162.832031 125.421875 L 169.832031 125.421875 L 169.832031 136.421875 L 162.832031 136.421875 Z M 162.832031 125.421875 "/>
<g style="fill:rgb(0%,0%,100%);fill-opacity:1;">
  <use xlink:href="#glyph0-3" x="162.832031" y="134.084961"/>
</g>
<path style="fill:none;stroke-width:1.2;stroke-linecap:butt;stroke-linejoin:miter;stroke:rgb(0%,0%,0%);stroke-opacity:1;stroke-miterlimit:10;" d="M 172.164062 109.445312 L 164.449219 101.335938 "/>
<path style="fill:none;stroke-width:1.2;stroke-linecap:butt;stroke-linejoin:miter;stroke:rgb(0%,0%,100%);stroke-opacity:1;stroke-miterlimit:10;" d="M 164.449219 101.335938 L 156.734375 93.226562 "/>
<path style="fill:none;stroke-width:1.2;stroke-linecap:butt;stroke-linejoin:miter;stroke:rgb(0%,0%,0%);stroke-opacity:1;stroke-miterlimit:10;" d="M 172.164062 109.445312 L 183.046875 106.820312 "/>
<path style="fill:none;stroke-width:1.2;stroke-linecap:butt;stroke-linejoin:miter;stroke:rgb(0%,0%,100%);stroke-opacity:1;stroke-miterlimit:10;" d="M 183.046875 106.820312 L 193.925781 104.195312 "/>
<path style="fill:none;stroke-width:1.2;stroke-linecap:butt;stroke-linejoin:miter;stroke:rgb(0%,0%,100%);stroke-opacity:1;stroke-miterlimit:10;" d="M 156.734375 93.226562 L 145.851562 95.851562 "/>
<path style="fill:none;stroke-width:1.2;stroke-linecap:butt;stroke-linejoin:miter;stroke:rgb(0%,0%,0%);stroke-opacity:1;stroke-miterlimit:10;" d="M 145.851562 95.851562 L 134.96875 98.480469 "/>
<path style="fill:none;stroke-width:1.2;stroke-linecap:butt;stroke-linejoin:miter;stroke:rgb(0%,0%,100%);stroke-opacity:1;stroke-miterlimit:10;" d="M 155.792969 98.871094 L 147.085938 100.972656 "/>
<path style="fill:none;stroke-width:1.2;stroke-linecap:butt;stroke-linejoin:miter;stroke:rgb(0%,0%,0%);stroke-opacity:1;stroke-miterlimit:10;" d="M 147.085938 100.972656 L 138.382812 103.074219 "/>
<path style=" stroke:none;fill-rule:nonzero;fill:rgb(100%,100%,100%);fill-opacity:1;" d="M 153.734375 87.726562 L 160.734375 87.726562 L 160.734375 98.726562 L 153.734375 98.726562 Z M 153.734375 87.726562 "/>
<g style="fill:rgb(0%,0%,100%);fill-opacity:1;">
  <use xlink:href="#glyph0-3" x="153.734375" y="96.389648"/>
</g>
<path style="fill:none;stroke-width:1.2;stroke-linecap:butt;stroke-linejoin:miter;stroke:rgb(0%,0%,100%);stroke-opacity:1;stroke-miterlimit:10;" d="M 193.925781 104.195312 L 201.644531 112.304688 "/>
<path style="fill:none;stroke-width:1.2;stroke-linecap:butt;stroke-linejoin:miter;stroke:rgb(0%,0%,0%);stroke-opacity:1;stroke-miterlimit:10;" d="M 201.644531 112.304688 L 209.359375 120.414062 "/>
<path style=" stroke:none;fill-rule:nonzero;fill:rgb(100%,100%,100%);fill-opacity:1;" d="M 186.925781 98.695312 L 200.925781 98.695312 L 200.925781 109.695312 L 186.925781 109.695312 Z M 186.925781 98.695312 "/>
<g style="fill:rgb(0%,0%,100%);fill-opacity:1;">
  <use xlink:href="#glyph0-3" x="186.925781" y="107.358398"/>
  <use xlink:href="#glyph0-4" x="193.90332" y="107.358398"/>
</g>
<path style="fill:none;stroke-width:1.2;stroke-linecap:butt;stroke-linejoin:miter;stroke:rgb(0%,0%,0%);stroke-opacity:1;stroke-miterlimit:10;" d="M 209.359375 120.414062 L 203.027344 141.890625 "/>
<path style="fill:none;stroke-width:1.2;stroke-linecap:butt;stroke-linejoin:miter;stroke:rgb(0%,0%,0%);stroke-opacity:1;stroke-miterlimit:10;" d="M 213.777344 124.050781 L 208.710938 141.230469 "/>
<path style="fill:none;stroke-width:1.2;stroke-linecap:butt;stroke-linejoin:miter;stroke:rgb(0%,0%,0%);stroke-opacity:1;stroke-miterlimit:10;" d="M 231.121094 115.160156 L 209.359375 120.414062 "/>
<path style="fill:none;stroke-width:1.2;stroke-linecap:butt;stroke-linejoin:miter;stroke:rgb(0%,0%,0%);stroke-opacity:1;stroke-miterlimit:10;" d="M 203.027344 141.890625 L 218.457031 158.109375 "/>
<path style="fill:none;stroke-width:1.2;stroke-linecap:butt;stroke-linejoin:miter;stroke:rgb(0%,0%,0%);stroke-opacity:1;stroke-miterlimit:10;" d="M 218.457031 158.109375 L 240.21875 152.859375 "/>
<path style="fill:none;stroke-width:1.2;stroke-linecap:butt;stroke-linejoin:miter;stroke:rgb(0%,0%,0%);stroke-opacity:1;stroke-miterlimit:10;" d="M 219.398438 152.464844 L 236.808594 148.261719 "/>
<path style="fill:none;stroke-width:1.2;stroke-linecap:butt;stroke-linejoin:miter;stroke:rgb(0%,0%,0%);stroke-opacity:1;stroke-miterlimit:10;" d="M 240.21875 152.859375 L 246.554688 131.382812 "/>
<path style="fill:none;stroke-width:1.2;stroke-linecap:butt;stroke-linejoin:miter;stroke:rgb(0%,0%,0%);stroke-opacity:1;stroke-miterlimit:10;" d="M 240.21875 152.859375 L 255.652344 169.078125 "/>
<path style="fill:none;stroke-width:1.2;stroke-linecap:butt;stroke-linejoin:miter;stroke:rgb(0%,0%,0%);stroke-opacity:1;stroke-miterlimit:10;" d="M 246.554688 131.382812 L 231.121094 115.160156 "/>
<path style="fill:none;stroke-width:1.2;stroke-linecap:butt;stroke-linejoin:miter;stroke:rgb(0%,0%,0%);stroke-opacity:1;stroke-miterlimit:10;" d="M 241.191406 133.390625 L 228.847656 120.414062 "/>
<path style="fill:none;stroke-width:1.2;stroke-linecap:butt;stroke-linejoin:miter;stroke:rgb(0%,0%,0%);stroke-opacity:1;stroke-miterlimit:10;" d="M 255.652344 169.078125 L 249.320312 190.554688 "/>
<path style="fill:none;stroke-width:1.2;stroke-linecap:butt;stroke-linejoin:miter;stroke:rgb(0%,0%,0%);stroke-opacity:1;stroke-miterlimit:10;" d="M 249.320312 190.554688 L 257.035156 198.664062 "/>
<path style="fill:none;stroke-width:1.2;stroke-linecap:butt;stroke-linejoin:miter;stroke:rgb(100%,0%,0%);stroke-opacity:1;stroke-miterlimit:10;" d="M 257.035156 198.664062 L 264.75 206.773438 "/>
<path style=" stroke:none;fill-rule:nonzero;fill:rgb(100%,100%,100%);fill-opacity:1;" d="M 257.75 201.273438 L 272.75 201.273438 L 272.75 212.273438 L 257.75 212.273438 Z M 257.75 201.273438 "/>
<g style="fill:rgb(100%,0%,0%);fill-opacity:1;">
  <use xlink:href="#glyph0-5" x="257.75" y="209.936523"/>
  <use xlink:href="#glyph0-4" x="265.091797" y="209.936523"/>
</g>
<path style="fill:none;stroke-width:1.2;stroke-linecap:butt;stroke-linejoin:miter;stroke:rgb(0%,0%,100%);stroke-opacity:1;stroke-miterlimit:10;" d="M 137.734375 157.648438 L 145.449219 165.757812 "/>
<path style="fill:none;stroke-width:1.2;stroke-linecap:butt;stroke-linejoin:miter;stroke:rgb(0%,0%,0%);stroke-opacity:1;stroke-miterlimit:10;" d="M 145.449219 165.757812 L 153.167969 173.871094 "/>
<path style="fill:none;stroke-width:1.2;stroke-linecap:butt;stroke-linejoin:miter;stroke:rgb(0%,0%,100%);stroke-opacity:1;stroke-miterlimit:10;" d="M 137.734375 157.648438 L 126.851562 160.273438 "/>
<path style="fill:none;stroke-width:1.2;stroke-linecap:butt;stroke-linejoin:miter;stroke:rgb(0%,0%,0%);stroke-opacity:1;stroke-miterlimit:10;" d="M 126.851562 160.273438 L 115.972656 162.902344 "/>
<path style=" stroke:none;fill-rule:nonzero;fill:rgb(100%,100%,100%);fill-opacity:1;" d="M 134.734375 152.148438 L 141.734375 152.148438 L 141.734375 163.148438 L 134.734375 163.148438 Z M 134.734375 152.148438 "/>
<g style="fill:rgb(0%,0%,100%);fill-opacity:1;">
  <use xlink:href="#glyph0-3" x="134.734375" y="160.811523"/>
</g>
<path style="fill:none;stroke-width:1.2;stroke-linecap:butt;stroke-linejoin:miter;stroke:rgb(0%,0%,0%);stroke-opacity:1;stroke-miterlimit:10;" d="M 113.445312 162.15625 L 110.277344 172.894531 "/>
<path style="fill:none;stroke-width:1.2;stroke-linecap:butt;stroke-linejoin:miter;stroke:rgb(100%,0%,0%);stroke-opacity:1;stroke-miterlimit:10;" d="M 110.277344 172.894531 L 107.113281 183.632812 "/>
<path style="fill:none;stroke-width:1.2;stroke-linecap:butt;stroke-linejoin:miter;stroke:rgb(0%,0%,0%);stroke-opacity:1;stroke-miterlimit:10;" d="M 118.496094 163.648438 L 115.332031 174.382812 "/>
<path style="fill:none;stroke-width:1.2;stroke-linecap:butt;stroke-linejoin:miter;stroke:rgb(100%,0%,0%);stroke-opacity:1;stroke-miterlimit:10;" d="M 115.332031 174.382812 L 112.164062 185.121094 "/>
<path style=" stroke:none;fill-rule:nonzero;fill:rgb(100%,100%,100%);fill-opacity:1;" d="M 105.640625 178.875 L 113.640625 178.875 L 113.640625 189.875 L 105.640625 189.875 Z M 105.640625 178.875 "/>
<g style="fill:rgb(100%,0%,0%);fill-opacity:1;">
  <use xlink:href="#glyph0-5" x="105.640625" y="187.538086"/>
</g>
</g>
</svg>

<svg xmlns="http://www.w3.org/2000/svg" xmlns:xlink="http://www.w3.org/1999/xlink" width="300pt" height="300pt" viewBox="0 0 300 300"><defs><symbol overflow="visible"><path d="M.453 1.594v-7.938h4.5v7.938zm.5-.5h3.5v-6.938h-3.5zm0 0"/></symbol><symbol overflow="visible" id="a"><path d="M5.797-6.063v.938c-.305-.27-.625-.473-.97-.61-.335-.144-.686-.218-1.06-.218-.75 0-1.33.23-1.736.687-.397.46-.592 1.12-.592 1.985 0 .866.195 1.526.593 1.983.408.46.986.688 1.736.688.375 0 .726-.066 1.062-.203.344-.132.664-.343.97-.625V-.5c-.314.21-.642.367-.986.47-.343.1-.714.155-1.11.155-.99 0-1.772-.3-2.343-.906C.784-1.396.5-2.228.5-3.28c0-1.052.285-1.88.86-2.486.57-.613 1.35-.92 2.343-.92.395-.002.766.053 1.11.155.35.104.68.26.984.468zm0 0"/></symbol><symbol overflow="visible" id="b"><path d="M.844-6.844h.812V0H.844zm0 0"/></symbol><symbol overflow="visible" id="c"><path d="M.89-6.563H2.08l2.906 5.485v-5.484h.86V0H4.656L1.75-5.484V0H.89zm0 0"/></symbol><symbol overflow="visible" id="d"><path d="M.89-6.563h.876v2.688H5v-2.688h.89V0H5v-3.125H1.766V0H.89zm0 0"/></symbol><symbol overflow="visible" id="e"><path d="M3.547-5.953c-.65 0-1.164.242-1.547.72-.375.48-.563 1.13-.563 1.952 0 .835.188 1.49.563 1.967.383.48.898.72 1.547.72.644 0 1.156-.24 1.53-.72.376-.476.564-1.132.564-1.968 0-.822-.187-1.474-.562-1.954-.375-.477-.887-.72-1.53-.72zm0-.734c.914 0 1.648.312 2.203.937.55.617.828 1.438.828 2.47 0 1.042-.277 1.87-.828 2.483-.555.617-1.29.922-2.203.922-.93 0-1.668-.305-2.22-.922C.774-1.41.5-2.237.5-3.28c0-1.033.273-1.853.828-2.47.55-.625 1.29-.938 2.22-.938zm0 0"/></symbol></defs><g><path fill="#fff" d="M0 0h300v300H0z"/><path d="M87.875 189.63l-7.715-8.11" stroke-width="1.2" stroke="#0c0" stroke-miterlimit="10" fill="none"/><path d="M80.16 181.52l-7.715-8.114" stroke-width="1.2" stroke="#000" stroke-miterlimit="10" fill="none"/><path d="M82.875 184.13h10v11h-10zm0 0" fill="#fff"/><g fill="#0c0"><use xlink:href="#a" x="82.875" y="192.792"/><use xlink:href="#b" x="89.389" y="192.792"/></g><path d="M72.445 173.406L50.68 178.66M69.03 168.813l-17.41 4.203M78.777 151.934l-6.332 21.472M50.68 178.66l-15.43-16.22M35.25 162.44l6.332-21.475M40.938 161.78l5.066-17.178M41.582 140.965l21.766-5.254M63.348 135.71l3.164-10.733" stroke-width="1.2" stroke="#000" stroke-miterlimit="10" fill="none"/><path d="M66.512 124.977l3.168-10.74" stroke-width="1.2" stroke="#0c0" stroke-miterlimit="10" fill="none"/><path d="M63.348 135.71l15.43 16.224M61.074 140.965l12.344 12.976" stroke-width="1.2" stroke="#000" stroke-miterlimit="10" fill="none"/><path d="M64.68 108.738h10v11h-10zm0 0" fill="#fff"/><g fill="#0c0"><use xlink:href="#a" x="64.68" y="117.401"/><use xlink:href="#b" x="71.193" y="117.401"/></g><path d="M78.777 151.934l21.762-5.254M100.54 146.68l6.33-21.473M106.227 146.023l5.066-17.18M115.973 162.902L100.54 146.68M106.87 125.207l21.767-5.254M128.637 119.953l15.43 16.223M133.996 117.945l12.344 12.977M134.97 98.48l-6.333 21.473M144.066 136.176l10.883-2.63" stroke-width="1.2" stroke="#000" stroke-miterlimit="10" fill="none"/><path d="M154.95 133.547l10.882-2.625" stroke-width="1.2" stroke="#00f" stroke-miterlimit="10" fill="none"/><path d="M144.066 136.176l-3.164 10.734" stroke-width="1.2" stroke="#000" stroke-miterlimit="10" fill="none"/><path d="M140.902 146.91l-3.168 10.738M165.832 130.922l3.164-10.738" stroke-width="1.2" stroke="#00f" stroke-miterlimit="10" fill="none"/><path d="M168.996 120.184l3.168-10.74" stroke-width="1.2" stroke="#000" stroke-miterlimit="10" fill="none"/><path d="M161.41 127.285l2.535-8.59" stroke-width="1.2" stroke="#00f" stroke-miterlimit="10" fill="none"/><path d="M163.945 118.695l2.532-8.59" stroke-width="1.2" stroke="#000" stroke-miterlimit="10" fill="none"/><path d="M162.832 125.422h7v11h-7zm0 0" fill="#fff"/><use xlink:href="#c" x="162.832" y="134.085" fill="#00f"/><path d="M172.164 109.445l-7.715-8.11" stroke-width="1.2" stroke="#000" stroke-miterlimit="10" fill="none"/><path d="M164.45 101.336l-7.716-8.11" stroke-width="1.2" stroke="#00f" stroke-miterlimit="10" fill="none"/><path d="M172.164 109.445l10.883-2.625" stroke-width="1.2" stroke="#000" stroke-miterlimit="10" fill="none"/><path d="M183.047 106.82l10.88-2.625M156.734 93.227l-10.882 2.625" stroke-width="1.2" stroke="#00f" stroke-miterlimit="10" fill="none"/><path d="M145.852 95.852L134.97 98.48" stroke-width="1.2" stroke="#000" stroke-miterlimit="10" fill="none"/><path d="M155.793 98.87l-8.707 2.103" stroke-width="1.2" stroke="#00f" stroke-miterlimit="10" fill="none"/><path d="M147.086 100.973l-8.703 2.1" stroke-width="1.2" stroke="#000" stroke-miterlimit="10" fill="none"/><path d="M153.734 87.727h7v11h-7zm0 0" fill="#fff"/><use xlink:href="#c" x="153.734" y="96.39" fill="#00f"/><path d="M193.926 104.195l7.72 8.11" stroke-width="1.2" stroke="#00f" stroke-miterlimit="10" fill="none"/><path d="M201.645 112.305l7.714 8.11" stroke-width="1.2" stroke="#000" stroke-miterlimit="10" fill="none"/><path d="M186.926 98.695h14v11h-14zm0 0" fill="#fff"/><g fill="#00f"><use xlink:href="#c" x="186.926" y="107.358"/><use xlink:href="#d" x="193.903" y="107.358"/></g><path d="M209.36 120.414l-6.333 21.477M213.777 124.05l-5.066 17.18M231.12 115.16l-21.76 5.254M203.027 141.89l15.43 16.22M218.457 158.11l21.762-5.25M219.398 152.465l17.41-4.203M240.22 152.86l6.335-21.477M240.22 152.86l15.432 16.218M246.555 131.383L231.12 115.16M241.19 133.39l-12.342-12.976M255.652 169.078l-6.332 21.477M249.32 190.555l7.715 8.11" stroke-width="1.2" stroke="#000" stroke-miterlimit="10" fill="none"/><path d="M257.035 198.664l7.715 8.11" stroke-width="1.2" stroke="#f00" stroke-miterlimit="10" fill="none"/><path d="M257.75 201.273h15v11h-15zm0 0" fill="#fff"/><g fill="#f00"><use xlink:href="#e" x="257.75" y="209.937"/><use xlink:href="#d" x="265.092" y="209.937"/></g><path d="M137.734 157.648l7.715 8.11" stroke-width="1.2" stroke="#00f" stroke-miterlimit="10" fill="none"/><path d="M145.45 165.758l7.718 8.113" stroke-width="1.2" stroke="#000" stroke-miterlimit="10" fill="none"/><path d="M137.734 157.648l-10.882 2.625" stroke-width="1.2" stroke="#00f" stroke-miterlimit="10" fill="none"/><path d="M126.852 160.273l-10.88 2.63" stroke-width="1.2" stroke="#000" stroke-miterlimit="10" fill="none"/><path d="M134.734 152.148h7v11h-7zm0 0" fill="#fff"/><use xlink:href="#c" x="134.734" y="160.812" fill="#00f"/><path d="M113.445 162.156l-3.168 10.74" stroke-width="1.2" stroke="#000" stroke-miterlimit="10" fill="none"/><path d="M110.277 172.895l-3.164 10.738" stroke-width="1.2" stroke="#f00" stroke-miterlimit="10" fill="none"/><path d="M118.496 163.648l-3.164 10.735" stroke-width="1.2" stroke="#000" stroke-miterlimit="10" fill="none"/><path d="M115.332 174.383l-3.168 10.738" stroke-width="1.2" stroke="#f00" stroke-miterlimit="10" fill="none"/><path d="M105.64 178.875h8v11h-8zm0 0" fill="#fff"/><use xlink:href="#e" x="105.641" y="187.538" fill="#f00"/></g></svg>
